app/images/grid__icon_engine.svg

<svg width="63" height="63" viewBox="0 0 63 63" fill="none" xmlns="http://www.w3.org/2000/svg">
<path d="M7.11284 30.4839C5.43216 30.4839 4.06445 31.8516 4.06445 33.5323C4.06445 35.2129 5.43216 36.5807 7.11284 36.5807C8.79352 36.5807 10.1612 35.2129 10.1612 33.5323C10.1612 31.8516 8.79352 30.4839 7.11284 30.4839ZM7.11284 34.5484C6.55295 34.5484 6.09671 34.0932 6.09671 33.5323C6.09671 32.9714 6.55295 32.5161 7.11284 32.5161C7.67273 32.5161 8.12897 32.9714 8.12897 33.5323C8.12897 34.0932 7.67273 34.5484 7.11284 34.5484Z" fill="#02133C"/>
<path d="M59.9516 0H56.9032H36.5806H21.7868C20.473 0 19.3105 0.83729 18.8949 2.0851L18.5738 3.04839H15.2419C13.5613 3.04839 12.1935 4.4161 12.1935 6.09677V7.41266C9.25897 8.28958 7.1129 11.0098 7.1129 14.2258C7.1129 16.3485 8.05181 18.2517 9.53129 19.5554C7.25821 21.2849 5.69744 23.8414 5.23713 26.6785C2.22329 27.5046 0 30.2603 0 33.5323C0 37.4535 3.19065 40.6452 7.1129 40.6452H8.12903V38.6129H7.1129C4.31144 38.6129 2.03226 36.3337 2.03226 33.5323C2.03226 30.7308 4.31144 28.4516 7.1129 28.4516C8.9206 28.4516 10.6064 29.4251 11.5138 30.9909L13.2717 29.9728C13.169 29.796 13.0501 29.6334 12.9343 29.4677H14.2258V21.3387C18.1481 21.3387 21.3387 18.1481 21.3387 14.2258C21.3387 10.3035 18.1481 7.1129 14.2258 7.1129V6.09677C14.2258 5.53689 14.682 5.08065 15.2419 5.08065H20.0391L20.8235 2.72729C20.9617 2.31169 21.3489 2.03226 21.7868 2.03226H22.4575C22.93 4.34802 24.9825 6.09677 27.4355 6.09677C29.8884 6.09677 31.941 4.34802 32.4135 2.03226H36.5806V13.2361C35.7291 12.5909 34.6805 12.1935 33.5323 12.1935C30.7308 12.1935 28.4516 14.4727 28.4516 17.2742C28.4516 20.0757 30.7308 22.3548 33.5323 22.3548C35.9852 22.3548 38.0378 20.6061 38.5103 18.2903H54.871V29.4677H41.6613V31.5H56.9032V18.2903V16.2581H59.9516C61.6323 16.2581 63 14.8904 63 13.2097V3.04839C63 1.36771 61.6323 0 59.9516 0ZM12.1935 28.5614C10.9224 27.2709 9.18581 26.4945 7.34153 26.4346C7.87602 24.0934 9.33315 22.0287 11.3654 20.7331C11.6326 20.851 11.91 20.9475 12.1935 21.0329V28.5614V28.5614ZM19.3065 14.2258C19.3065 17.0273 17.0273 19.3065 14.2258 19.3065C13.1833 19.3065 12.2149 18.9894 11.4071 18.4488L11.3796 18.3919C11.3695 18.397 11.3613 18.4031 11.3512 18.4082C10.0211 17.4906 9.14516 15.9603 9.14516 14.2258C9.14516 11.4243 11.4243 9.14516 14.2258 9.14516C17.0273 9.14516 19.3065 11.4243 19.3065 14.2258ZM27.4355 4.06452C26.1125 4.06452 24.9947 3.21198 24.5741 2.03226H30.2959C29.8762 3.21198 28.7585 4.06452 27.4355 4.06452ZM33.5323 20.3226C31.8516 20.3226 30.4839 18.9549 30.4839 17.2742C30.4839 15.5935 31.8516 14.2258 33.5323 14.2258C35.2129 14.2258 36.5806 15.5935 36.5806 17.2742C36.5806 18.9549 35.2129 20.3226 33.5323 20.3226ZM48.7742 16.2581H38.6129V2.03226H41.6877C41.0425 2.88377 40.6452 3.93242 40.6452 5.08065C40.6452 7.88211 42.9243 10.1613 45.7258 10.1613C46.874 10.1613 47.9227 9.76398 48.7742 9.11874V16.2581ZM45.7258 8.12903C44.0451 8.12903 42.6774 6.76132 42.6774 5.08065C42.6774 3.39997 44.0451 2.03226 45.7258 2.03226C47.4065 2.03226 48.7742 3.39997 48.7742 5.08065C48.7742 6.76132 47.4065 8.12903 45.7258 8.12903ZM60.9677 13.2097C60.9677 13.7696 60.5115 14.2258 59.9516 14.2258H56.9032V12.1935H54.871V14.2258V16.2581H50.8065V5.08065C50.8065 3.93242 50.4091 2.88377 49.7639 2.03226H54.871V10.1613H56.9032V2.03226H59.9516C60.5115 2.03226 60.9677 2.4885 60.9677 3.04839V13.2097Z" fill="#02133C"/>
<path d="M11.1775 14.2259C11.1775 15.9066 12.5452 17.2743 14.2259 17.2743C15.9066 17.2743 17.2743 15.9066 17.2743 14.2259C17.2743 12.5452 15.9066 11.1775 14.2259 11.1775C12.5452 11.1775 11.1775 12.5452 11.1775 14.2259ZM15.242 14.2259C15.242 14.7858 14.7858 15.242 14.2259 15.242C13.666 15.242 13.2097 14.7858 13.2097 14.2259C13.2097 13.666 13.666 13.2097 14.2259 13.2097C14.7858 13.2097 15.242 13.666 15.242 14.2259Z" fill="#02133C"/>
<path d="M31.5001 62.9999H23.3711V58.4222C21.9028 58.0442 20.4985 57.461 19.1816 56.6806L15.9402 59.921L10.1919 54.1728L13.4323 50.9313C12.652 49.6144 12.0687 48.2101 11.6907 46.7418H7.11304V38.6128H11.6907C12.0687 37.1445 12.652 35.7402 13.4323 34.4233L10.1919 31.1818L15.9402 25.4336L19.1816 28.674C20.4985 27.8937 21.9028 27.3104 23.3711 26.9324V22.3547H31.5001V26.9324C32.9684 27.3104 34.3727 27.8937 35.6896 28.674L38.9311 25.4336L44.6793 31.1818L41.4389 34.4233C42.2193 35.7402 42.8025 37.1445 43.1805 38.6128H47.7582V46.7418H43.1805C42.8025 48.2101 42.2193 49.6144 41.4389 50.9313L44.6793 54.1728L38.9311 59.921L35.6896 56.6806C34.3727 57.461 32.9684 58.0442 31.5001 58.4222V62.9999Z" fill="#C40B0B"/>
<path d="M27.4357 52.8387C21.8328 52.8387 17.2744 48.2803 17.2744 42.6774C17.2744 37.0745 21.8328 32.5161 27.4357 32.5161C33.0386 32.5161 37.597 37.0745 37.597 42.6774C37.597 45.3773 36.5494 47.9196 34.6462 49.836L33.2043 48.4053C34.7264 46.871 35.5647 44.8377 35.5647 42.6774C35.5647 38.1953 31.9178 34.5484 27.4357 34.5484C22.9536 34.5484 19.3067 38.1953 19.3067 42.6774C19.3067 47.1595 22.9536 50.8064 27.4357 50.8064C28.9782 50.8064 30.479 50.3725 31.7756 49.5525L32.8618 51.2688C31.2401 52.2961 29.3633 52.8387 27.4357 52.8387Z" fill="#02133C"/>
<path d="M27.4356 48.7741C24.0733 48.7741 21.3389 46.0397 21.3389 42.6773C21.3389 39.315 24.0733 36.5806 27.4356 36.5806C30.798 36.5806 33.5324 39.315 33.5324 42.6773C33.5324 46.0397 30.798 48.7741 27.4356 48.7741ZM27.4356 38.6128C25.1941 38.6128 23.3711 40.4358 23.3711 42.6773C23.3711 44.9189 25.1941 46.7419 27.4356 46.7419C29.6772 46.7419 31.5002 44.9189 31.5002 42.6773C31.5002 40.4358 29.6772 38.6128 27.4356 38.6128Z" fill="#02133C"/>
</svg>

<svg width="63" height="63" fill="none" xmlns="http://www.w3.org/2000/svg"><path d="M7.113 30.484a3.052 3.052 0 00-3.049 3.048 3.052 3.052 0 003.049 3.049 3.052 3.052 0 003.048-3.049 3.052 3.052 0 00-3.048-3.048zm0 4.064a1.017 1.017 0 010-2.032 1.017 1.017 0 010 2.032z" fill="#02133C"/><path d="M59.952 0H21.787a3.044 3.044 0 00-2.892 2.085l-.321.963h-3.332a3.052 3.052 0 00-3.049 3.049v1.316c-2.934.877-5.08 3.597-5.08 6.813a7.09 7.09 0 002.418 5.33 11.253 11.253 0 00-4.294 7.122C2.223 27.505 0 30.26 0 33.532a7.12 7.12 0 007.113 7.113h1.016v-2.032H7.113a5.086 5.086 0 01-5.08-5.08 5.085 5.085 0 015.08-5.081 5.1 5.1 0 014.4 2.539l1.759-1.018c-.103-.177-.222-.34-.338-.505h1.292v-8.13a7.12 7.12 0 007.113-7.112 7.12 7.12 0 00-7.113-7.113V6.097c0-.56.456-1.016 1.016-1.016h4.797l.784-2.354c.139-.415.526-.695.964-.695h.67a5.09 5.09 0 004.979 4.065 5.09 5.09 0 004.977-4.065h4.168v11.204a5.028 5.028 0 00-3.049-1.043 5.086 5.086 0 00-5.08 5.081 5.085 5.085 0 005.08 5.08 5.09 5.09 0 004.978-4.064h16.361v11.178h-13.21V31.5h15.242V16.258h3.049A3.052 3.052 0 0063 13.21V3.048A3.052 3.052 0 0059.952 0zM12.194 28.561a7.147 7.147 0 00-4.852-2.126 9.23 9.23 0 014.023-5.702c.268.118.545.215.829.3v7.528zm7.112-14.335a5.086 5.086 0 01-5.08 5.08 5.05 5.05 0 01-2.819-.857l-.027-.057-.029.016a5.076 5.076 0 01-2.206-4.182c0-2.802 2.28-5.08 5.08-5.08a5.086 5.086 0 015.082 5.08zm8.13-10.161a3.044 3.044 0 01-2.862-2.033h5.722a3.042 3.042 0 01-2.86 2.033zm6.096 16.258a3.052 3.052 0 01-3.048-3.049 3.052 3.052 0 013.048-3.048 3.052 3.052 0 013.049 3.048 3.052 3.052 0 01-3.049 3.049zm15.242-4.065H38.613V2.032h3.075a5.028 5.028 0 00-1.043 3.049c0 2.801 2.28 5.08 5.08 5.08a5.028 5.028 0 003.05-1.042v7.14zM45.726 8.13a3.052 3.052 0 01-3.049-3.048 3.052 3.052 0 013.049-3.049 3.052 3.052 0 013.048 3.049 3.052 3.052 0 01-3.048 3.048zm15.242 5.08c0 .56-.457 1.017-1.016 1.017h-3.049v-2.033h-2.032v4.064h-4.065V5.081a5.028 5.028 0 00-1.042-3.049h5.107v8.13h2.032v-8.13h3.049c.56 0 1.016.457 1.016 1.016V13.21z" fill="#02133C"/><path d="M11.178 14.226a3.052 3.052 0 003.048 3.048 3.052 3.052 0 003.048-3.048 3.052 3.052 0 00-3.048-3.049 3.052 3.052 0 00-3.049 3.049zm4.064 0c0 .56-.456 1.016-1.016 1.016s-1.016-.456-1.016-1.016.456-1.016 1.016-1.016 1.016.456 1.016 1.016z" fill="#02133C"/><path d="M31.5 63h-8.129v-4.578a16.05 16.05 0 01-4.19-1.741l-3.24 3.24-5.75-5.748 3.241-3.242a16.053 16.053 0 01-1.741-4.19H7.113v-8.128h4.578a16.053 16.053 0 011.741-4.19l-3.24-3.241 5.748-5.748 3.242 3.24a16.053 16.053 0 014.19-1.742v-4.577H31.5v4.577c1.468.378 2.873.962 4.19 1.742l3.241-3.24 5.748 5.748-3.24 3.241a16.05 16.05 0 011.742 4.19h4.577v8.129H43.18a16.05 16.05 0 01-1.741 4.19l3.24 3.24-5.748 5.749-3.241-3.24a16.05 16.05 0 01-4.19 1.741V63z" fill="#C40B0B"/><path d="M27.436 52.839c-5.603 0-10.162-4.559-10.162-10.162 0-5.602 4.559-10.16 10.162-10.16 5.603 0 10.161 4.557 10.161 10.16a10.1 10.1 0 01-2.95 7.159l-1.443-1.43a8.082 8.082 0 002.36-5.729c0-4.482-3.646-8.129-8.128-8.129s-8.13 3.647-8.13 8.13c0 4.482 3.648 8.128 8.13 8.128a8.107 8.107 0 004.34-1.253l1.086 1.716a10.124 10.124 0 01-5.426 1.57z" fill="#02133C"/><path d="M27.436 48.774a6.103 6.103 0 01-6.097-6.097 6.103 6.103 0 016.097-6.096 6.103 6.103 0 016.096 6.096 6.103 6.103 0 01-6.096 6.097zm0-10.161a4.069 4.069 0 00-4.065 4.064 4.069 4.069 0 004.065 4.065 4.069 4.069 0 004.064-4.065 4.069 4.069 0 00-4.064-4.064z" fill="#02133C"/></svg>
